X:1
T:[ID 2-10]
T:[ID 2-10]
T:Bezeichnung standardisiert: Menuett Menuet Violino Primo
T:Urheber unbekannt Erstbeleg: 1767 (Datum in der schriftlichen Quelle) Datum in der hier transkribierten schriftlichen Quelle: 1799
C:Urheber unbekannt
C:Erstbeleg: 1767 (Datum in der schriftlichen Quelle)
C:Datum in der hier transkribierten schriftlichen Quelle: 1799
%%score 1 2
L:1/8
M:3/4
K:D
V:1 treble nm="Violino Primo"
V:2 treble nm="Secondo"
V:1
 d'2 d'2 d'2 | d2 d2 d2 | e4 g/f/e | f2 d4 | d2 (3agf ge | f2 (3agf ge | fa g2 f2 |{f} e6 :: %8
 d2 (3agf ga | b2 g4 | e2 (3gfe fg | a2 f4 | DFAFGA | B2 G4 | E2 (3GFE FG | A2 F4 | a2 a2 a2 | %17
 b4 c'2 | (3d'c'b agfe |{e} d6 :| %20
V:2
 !fermata!f2 f2 f2 | F2 F2 F2 | c4 e/d/c | d2 F4 | d2 (3fed (3edc | d2 (3fed (3edc | defged | %7
{d} c6 :: d2 (3fe def | g2 e4 | c2 (3edc de | f2 d4 | FDFDEF | G2 E4 | C2 (3ED CDE | F2 D4 | %16
 f2 f2 f2 | g4 a2 | (3bag feAG | F6 :| %20

